X: 111
M: C
L: 1/8
K: Bb
g |\
fBdB (FB/c/ d).B | ecdB A(cce) | dFBg fdcB | AcFA Bdeg |
fBdB (FB/c/ d).B | df (e/d/c/B/) (Ac)ec | BFGb gefF | GBTFE DB,-B, |]


